X:1
T:Torna, deh, torna
T:Torna, deh, torna
T:Jacopo Peri
T:Source : Musische di Piero Benedetti---Fiorenza---Heredes di C.Marescotti---1611. Editor : André Vierendeels (22/05/15).
T:Notes : Original clefs C1, F4 Dotted brackets indicate black notes Note values have been halved m23 in BC "si" notated as "sol" in original print (see also m4) 
C:Jacopo Peri
%%score 1 2
L:1/8
Q:1/4=84
M:3/2
K:F
V:1 treble nm="Soprano" snm="S"
V:2 bass nm="BC" snm="BC"
V:1
 d4 B2 A2 c4 | A8 B2 c2 | _e6 d2 c4 | B12 | c4 c2 d2 _e d2 c | d6- d4 c2 | c4 B4 A4 | G12 | %8
w: Tor- na, deh, tor-|na, par- go-|let- to mi-|o,|tor- na che sen- za- *|te _ son|sen- za co-|re,|
 B4 B2 B2 B4 | A6 G2 A2 =B2 | c4 _e4 d4 | c12 | z6 d2 c2 B2 | A3 B c2 A2 B2 c2 | d6 B2 A4 | %15
w: do- ve t'as- con-|di, ohi- me? Che|t'ho fat- t'i-|o,|ch'io non ti|veg- * * gio'e non ti|sen- to'A- mo-|
[M:9/4] G12 z6 |[M:3/2] d2 c2 B2 A3 B c2 | A2 B2 c2 d6 | B2 A4 G6 | G4 G2 A2 c3 G | A6 z6 | %21
w: re?|ch'io non ti veg- * *|gio'e non ti sen-|to'A- mo- re,|cor- ri- m'in brac- chi'o-|mai|
 d4 d2 _e2 c4 |[M:9/4] B12 c4 c2 | d2 _e d2 c d6 d4 c2 |[M:3/2] c4 B2 A2 A4 | G12 | %26
w: spar- gi d'o- bli-|o, que- sto|ch'el cor _ mi strug- ge, as-|pro do- * lo-|re,|
 B4 B2 B2 B2 B2 | A6- A4 =B2 | c4 _e4 d4 | c6- c4 A2 | B3 c d2 d2 c2 G2 | A12 | d4 d2 B2 A4 | %33
w: sen- ti nel- la mia|vo- * ce'il|fle- bil suo-|no, _ tra|pian- * * ti'e tra so-|spir|chie- der per- do-|
 G6- G4 A2 | B3 c d2 d2 c2 G2 | A12 | d4 d2 B2 A4 | G12 |] %38
w: no, _ tra|pian- * * ti'e tra so-|spir|chie- der per- do-|no?|
V:2
 G,4 G,2 D,2 _E,4 | D,4 D2 C2 B,2 A,2 | G,4 _E,4 F,4 | B,,12 | F,4 F,2 ^F,2 G,2 C,2 | %5
 G,3 A, B,2 D,2 _E,2 A,,2 | B,,4 C,4 D,4 | G,,12 | B,4 B,2 A,2 G,4 | F,6 E,2 F,2 D,2 | %10
 _E,4 C,4 A,,4 | C,6 D,2 _E,2 F,2 | G,6 G,2 E,2 E,2 | F,6 E,2 D,2 C,2 | B,,4 G,,4 D,4 | %15
[M:9/4] G,,6 G,,6 G,6 |[M:3/2] G,2 E,2 E,2 F,6 | E,2 D,2 C,2 B,,4 G,,2- | G,,2 D,4 G,,6 | %19
 G,4 G,2 D,2 _E,4 | D,4 D2 C2 B,2 A,2 | G,4 _E,4 F,4 |[M:9/4] B,,12 F,4 F,2 | %23
 ^F,2 G,2 C,2 G,3 A, B,2 D,2 _E,2 A,,2 |[M:3/2] B,,4 C,4 D,4 | G,,12 | B,4 B,2 A,2 G,2 G,2 | %27
 F,6 E,2 F,2 D,2 | _E,4 C,4 G,,4 | C,6 D,2 _E,2 F,2 | G,6 G,2 E,2 E,2 | F,6 E,2 D,2 C,2 | %32
 B,,4 G,,4 D,4 | G,,12 | G,6 G,2 E,2 E,2 | F,6 E,2 D,2 C,2 | B,,4 G,,4 D,4 | G,,12 |] %38

